X:4747
T:October
O:England
M:6/8
L:1/8
S:Rodney Miller
C:Debbie Scott
K:Am
~A,3  C2D|~E3 AGE|~A,3  C2D|E2 c Bcd|
~A,3  C2D|~E3 AGE|D6|DGE DB,G,:|
~A,3 c3|AGE DB,G, |~A,3 c2d|edc AGE|
~A,3 c3|AGE DB,G, |[1 =F3-F2 E|DGE DB,G,:|[2 =F3-FG^G|A^G=G FDC||


